resources/icons/16px/sports-stadium.svg

<svg width="16" height="16" viewBox="0 0 16 16" fill="none" xmlns="http://www.w3.org/2000/svg">
<path d="M6 0.5C6 0.223858 6.22386 0 6.5 0C6.61998 0 6.73008 0.0422572 6.81625 0.1127C7.15445 -0.110537 7.65171 0.040135 8.18243 0.200944C8.8109 0.391371 9.48628 0.596013 9.99999 0.210796V2.8299C9.48935 3.14521 8.9152 2.95777 8.38215 2.78374C7.8435 2.60788 7.3468 2.44572 7 2.82989V4.02321C7.32759 4.00789 7.66134 4 8 4C9.0609 4 10.0736 4.07744 11 4.21807V0.5C11 0.223858 11.2239 0 11.5 0C11.62 0 11.7301 0.0422572 11.8162 0.1127C12.1545 -0.110537 12.6517 0.040135 13.1824 0.200944C13.8109 0.391371 14.4863 0.596013 15 0.210796V2.8299C14.4893 3.14521 13.9152 2.95777 13.3822 2.78374C12.8435 2.60788 12.3468 2.44572 12 2.82989V4.40135C14.3912 4.92006 16 5.88958 16 7C16 7.55209 15.6023 8.06935 14.9085 8.51369C14.3663 7.0881 11.4796 6 8 6C4.52036 6 1.63371 7.0881 1.0915 8.51369C0.397689 8.06935 0 7.55209 0 7C0 6.4721 0.3636 5.97605 1.00201 5.54514C1.00068 5.53027 1 5.51521 1 5.5V0.5C1 0.223858 1.22386 0 1.5 0C1.61998 0 1.73008 0.0422572 1.81625 0.1127C2.15445 -0.110537 2.65171 0.040135 3.18243 0.200944C3.8109 0.391371 4.48628 0.596013 4.99999 0.210796V2.8299C4.48935 3.14521 3.9152 2.95777 3.38215 2.78374C2.8435 2.60788 2.3468 2.44572 2 2.82989V5.01563C3.04221 4.57283 4.42755 4.24628 6 4.09451V0.5Z" fill="black"/>
<path d="M13.9996 8.98455C13.9952 8.90382 13.9537 8.75306 13.7382 8.5347C13.5038 8.29723 13.1151 8.03751 12.5558 7.79782C11.4409 7.31998 9.83081 7 8 7C6.16919 7 4.55915 7.31998 3.44417 7.79782C2.8849 8.03751 2.4962 8.29723 2.26184 8.5347C2.04633 8.75306 2.00483 8.90382 2.00043 8.98455C3.46631 9.60726 5.61085 10 8 10C10.3892 10 12.5337 9.60726 13.9996 8.98455Z" fill="black"/>
<path d="M14.008 10.0576C12.4217 10.6525 10.2973 11 8 11C5.70269 11 3.57833 10.6525 1.99202 10.0576C1.21971 9.76802 0.525034 9.43941 0 8.98455V13C0 14.3979 2.54955 15.667 6 16V15C6 13.8954 6.89543 13 8 13C9.10457 13 10 13.8954 10 15V16C13.4505 15.667 16 14.3979 16 13V8.98455C15.475 9.43941 14.7803 9.76802 14.008 10.0576Z" fill="black"/>
</svg>

<svg xmlns="http://www.w3.org/2000/svg" viewBox="0 0 16 16">
  <path d="M6 .5a.5.5 0 0 1 .816-.387C7.154-.111 7.652.04 8.182.2 8.811.39 9.486.596 10 .21V2.83c-.51.315-1.085.128-1.618-.046-.538-.176-1.035-.338-1.382.046v1.193Q7.492 4 8 4c1.06 0 2.074.077 3 .218V.5a.5.5 0 0 1 .816-.387c.338-.224.836-.073 1.366.088.629.19 1.304.395 1.818.01V2.83c-.51.315-1.085.128-1.618-.046-.538-.176-1.035-.338-1.382.046V4.4c2.391.52 4 1.489 4 2.599 0 .552-.398 1.07-1.091 1.514C14.366 7.088 11.479 6 8 6 4.52 6 1.634 7.088 1.092 8.514.397 8.069 0 7.552 0 7c0-.528.364-1.024 1.002-1.455L1 5.5v-5a.5.5 0 0 1 .816-.387C2.154-.111 2.652.04 3.182.2 3.811.39 4.486.596 5 .21V2.83c-.51.315-1.085.128-1.618-.046-.538-.176-1.035-.338-1.382.046v2.186c1.042-.443 2.428-.77 4-.921z"/>
  <path d="M14 8.985c-.005-.081-.046-.232-.262-.45-.234-.238-.623-.497-1.182-.737C11.44 7.32 9.83 7 8 7s-3.44.32-4.556.798c-.56.24-.948.5-1.182.737-.216.218-.257.369-.262.45C3.466 9.607 5.61 10 8 10s4.534-.393 6-1.015"/>
  <path d="M14.008 10.058C12.422 10.653 10.298 11 8 11s-4.422-.348-6.008-.942C1.22 9.768.525 9.439 0 8.985V13c0 1.398 2.55 2.667 6 3v-1a2 2 0 1 1 4 0v1c3.45-.333 6-1.602 6-3V8.985c-.525.454-1.22.783-1.992 1.073"/>
</svg>
